X:3121
T:Clumsy Lover
M:4/4
L:1/8
C:Neil Dickie
S:from Barra MacNeills' Traditional Album
R:reel
K:AMix
ceef ecBA|dffd gfed|ceef ecBA|d2 Bc d2 cB|ceef ecBA|dffd gfed|ceec d2 dB
|{d}BAAB A3 d:|
|:ceea {b}aecA|dAdf afdf|ceea {b}aecA|d2 Bc d2 cB|ceea {b}aecA|dAdf afdf
|ceec d2 dB|{d}BAAB A3d:|
|:ceeA e2cA|d2 f g2f ed|ceeA e2cA|d2 Bc d2 cB|ceeA e2cA|d2 f g2f ed|ceec
 d2 dB|{d}BAAB A3 d:|
|:ceac aaca|dfad aadf|ceac aace|d2 Bc d2 cB|ceac aaca|dfad aadf|ceec d2
dB|{d}BAAB A3 d:||


